X:20
T: Butter Boys HP
T: Ingar do Shuidhe Finn
S: "The Roche Collection of Traditional Irish Music" [III/62/176]
L: 1/8
M: 4/4
R: hornpipe
K: G
(3def | gg (3ggg gdga | bage dBGA | Bd G2 Bd GA | BG (3AAA AGED |
gg (3ggg gdga | bage dBGA | Bdge dBAB | G2 GG G2 :|
(3DEF | GG (3GGG GABd | edge edBd | edge dBGA | BG (3AAA AGED |
GG (3GGG GABd | edge dBGA | Bdge dBAB | G2 GG G2 :|
